X:1
T:Scott Joplin
T:"Stoptime"
T:Rag.
%%score { 1 | 2 }
L:1/8
Q:1/4=96
M:2/4
K:C
V:1 treble nm="Piano"
V:2 treble 
V:1
|:"^Tempo di Marcia" (c'/g'/e'/c'/ g/e'/c'/g/) | (a/c'/b/a/) g(3(E/F/^F/ | G) z z2 | %3
{/ac'} (d'/e'/d') d' z | (c'/g'/e'/c'/ g/e'/c'/g/) | (a/c'/b/a/ g)(3(E/F/^F/ | G) z z2 |1 %7
 z [FGB][EGc] z :|2 z [FGB][EGc](3E/^F/^G/ |: A[ce]- [ce]e | (f/e/d/e/) f[ABf] | [^GBe] z z2 | z4 | %13
 z [ce]- [ce]e | (f/e/d/e/) f[ABf] | [^GBe] z z2 |1 z [de^g][cea](3E/^F/^G/ :|2 z [^deg][cea] z || %18
!8va(! (c''/g''/e''/c''/ g'/e''/c''/g'/) | (a'/c''/b'/a'/ g')(3(e/f/^f/ | g) z z2 | %21
{/a'c''} (d''/e''/d'') d'' z | (c''/g''/e''/c''/ g'/e''/c''/g'/) | (a'/c''/b'/a'/ g')(3(e/f/^f/ | %24
 g) z z2 | z [fgb][egc']!8va)!e |: (f/e/f/g/- g/a/g/f/) | (e/^d/e/a/- a/g/a/^a/) | %28
 ([fb][fb]/^a/ b/c'/d'/^d'/) | (e'/c'/b/a/ g/a/g/e/) | (f/e/f/g/- g/a/g/f/) | %31
 (e/^d/e/a/- a/c'/b/a/) | b(b/d'/) (^c'/d'/e'/^f'/) | (g'/^a/b/d'/ g/=a/g/e/) | %34
 (f/e/f/g/- g/a/g/f/) | (e/^d/e/a/- a/g/a/^a/) | [fb]([fb]/^a/) (b/c'/d'/^d'/) | %37
 e'[E^G]- [EG][Gde] | ([G^ce]/f/e/A/ ^G/A/_B/A/) | (G/F/A/d/ f/e/d/A/) | (^A/B/d/g/- g/f/=A/B/) |1 %41
 (c/G/A/B/ c/d/e/g/) :|2 (c/E/G/e/) c[cg] |: z [cf]- ([cf]c') | ([c-e]2 [cc']) z | %45
 z [cfc']-([cfc'] [dd']) | ([e-g-e']2 [Geg]) z | z [cf]- ([cf]c') | ([c-e]2 [cc']) z |1 %49
 [^D^Fc] z [=D=Fc]2- | [DFc][DFB][CEc] z :|2 [^D^Fc] z [=D=Fc]2- | [DFc][DFB] [CEc](G/E/) |: %53
 (^D/^F/A) (A/c/^d) |"^R.H.""^L.H." (^d/^f/a) g(c/=d/) | e_e- e_A | ([C-_A]2 [CG])G/E/ | %57
 (^D/^F/A) (A/c/^d) |"^R.H.""^L.H." (^d/^f/a) g(3(E/F/^F/ | G) z z2 |1 z [FGB][EGc](G/E/) :|2 %61
 z [FGB][EGc] z |: z [cf]- ([cf]c') | ([c-e]2 [cc']) z | z [cfc']-([cfc'] [dd']) | %65
 ([e-g-e']2 [Geg]) z | z [cf]- ([cf]c') | ([c-e]2 [cc']) z | [^D^Fc] z [=D=Fc]2- | %69
 [DFc][DFB][CEc] z :: [Gce][^Gde]- [Gde][=Gde] | [G^ce][^F=cd]- [Fcd][=Fcd] | [FBd](G/A/ G) z | %73
 z [^GAe][GBf] z | [Gce][^Gde]- [Gde][=Gde] | [G^ce][^F=cd]- [Fcd][=Fcd] | [FBd](G/A/ G) z | %77
 z [FGB][EGc] z :: z/ (A/c/a/ ^f/^d/c/A/) | z/ (G/c/e/ g) z | z/ (A/c/a/ ^f/^d/c/A/) | %81
 z/ (G/c/e/ g) z | z/ A/B/c/ d/A/c/^d/ | .e.[Ac^d].[Gce].[^Fcd] | [Gce] z z2 |1 z [FGB][EGc] z :|2 %86
 z !>![Bfg]"^FINE"!>![cec'] z |] %87
V:2
|: ([EGc]2 [Gce]2 | [^FAc^d]2 [Gce])[K:bass](3(E,/=F,/^F,/ | G,) z z2 | %3
[K:treble] [^FAc][FAc] [=FGB] z | ([EGc]2 [Gce]2 | [^FAc^d]2 [Gce])[K:bass](3(E,/=F,/^F,/ | %6
 G,) z z2 |1 z [G,,G,][C,C] z :|2 z [G,,G,][C,C][E,E] |: [A,,A,][A,CE] [D,,D,][A,CE] | %10
 [A,DF][B,EG] [CFA][D,,D,] | [E,,E,] z z z | (E,,/^G,,/B,,/E,/- E,/D,/C,/B,,/) | %13
 [A,,A,][A,CE] [D,,D,][A,CE] | [A,DF][B,EG] [CFA][D,,D,] | [E,,E,] z z z |1 %16
 z [E,,E,][A,,A,][E,E] :|2 z [E,,E,][A,,A,] z ||[K:treble]!8va(! ([egc']2 [gc'e']2 | %19
 [^fac'^d']2 [gc'e'])[K:bass](3(E/=F/^F/ | G)[K:] z z2 | [^fac'][fac'] [=fgb] z | %22
 ([egc']2 [gc'e']2 | [^fac'^d']2 [gc'e'])[K:bass](3(E/=F/^F/ | G) z z2 | %25
 z [G,G][Cc]!8va)![^C,^C] |: [D,D][G,B,F] [G,,G,][G,B,F] | [C,C][G,CE] [E,E][^C,^C] | %28
 [D,D][G,B,F] [G,,G,][G,B,F] | [C,C][^F,C^D] [G,CE][^C,^C] | [D,D][G,B,F] [G,,G,][G,B,F] | %31
 [C,C][G,CE] [_E,_E][G,C] | [D,D][G,B,D] [D,D][^F,CD] | [G,,G,][G,B,D] [G,B,D][^C,^C] | %34
 [D,D][G,B,F] [G,,G,][G,B,F] | [C,C][G,CE] [E,E][^C,^C] | [D,D][G,B,F] [D,,D,][F,,F,] | %37
 ([E,,E,]/^G,,/B,,/E,/- E,/D,/C,/B,,/) | [A,,A,][G,A,^C] [B,,B,][^C,C] | %39
 [D,D][F,A,D] [A,,A,][F,A,D] | [D,D][G,B,F] [G,,G,][G,B,F] |1 [C,C][G,CE] [E,E][^C,^C] :|2 %42
 [C,C][G,CE] [G,CE][_B,CE] |: z [A,CF]- [A,CF]_A, | [G,CE]2- [G,CE] z | z [A,CF]- [A,CF]_A, | %46
 [G,CE]2- [G,CE] z | z [A,CF]- [A,CF]_A, | [G,CE]2- [G,CE] z |1 [A,,A,] z [_A,,_A,]2 | %50
 [_A,,_A,][G,,G,][C,G,] z :|2 [A,,A,] z [_A,,_A,]2 | [_A,,_A,][G,,G,] [C,G,](E,/G,/) |: %53
 (^F,/A,/C) C/^D/[I:staff -1]F | ^F[Fcd] [Gce]C/D/ | E_E- E[I:staff +1]_A, | (F,2 E,)(E,/G,/) | %57
 (^F,/A,/C) C/^D/[I:staff -1]F | ^F[Fcd] [Gce][I:staff +1](3(E,/F,/^F,/ | G,) z z2 |1 %60
 z [G,,G,][C,C](E,/G,/) :|2 z [G,,G,][C,C] z |: z [A,CF]- [A,CF]_A, | [G,CE]2- [G,CE] z | %64
 z [A,CF]- [A,CF]_A, | [G,CE]2- [G,CE] z | z [A,CF]- [A,CF]_A, | [G,CE]2- [G,CE] z | %68
 [A,,A,] z [_A,,_A,]2 | [_A,,_A,][G,,G,][C,G,] z :: [C,C][B,,B,]- [B,,B,][_B,,_B,] | %71
 [A,,A,][A,,A,]- [A,,A,][_A,,_A,] | ([G,,G,]G,/A,/) G, z | z [^C,^C][D,D][G,,G,] | %74
 [C,C][B,,B,]- [B,,B,][_B,,_B,] | [A,,A,][A,,A,]- [A,,A,][_A,,_A,] | ([G,,G,]G,/A,/) G, z | %77
 z [G,,G,][C,C] z :: [^F,A,^CD]4 | [G,CE]2- [G,CE] z | [^F,A,C^D]4 | [G,CE]2- [G,CE] z | %82
 [F,A,CD]2- [F,A,CD][^F,A,C^D] | .[G,CE].[^F,C^D] .[G,CE].[_A,CD] | [G,CE] z z2 |1 %85
 z [G,,G,][C,C] z :|2 z !>![G,,G,]!>![C,,C,] z |] %87

